X: 1
T: Willow Tree - Bucknell
C: Trad
R: Morris
L: 1/8
M: 6/8
K: G
Z: ABC transcription by Verge Roller
W: Part A
%%vskip 0
|: D | "G" G2 G G2 A | "G" B>G e d3 | G>A B "D" A2 A | "G" G3-G2 :|
W: Part B
%%vskip 0
|: A | "G" B2 A B>B A | "G" B2 A G2 A | "G" B2 A  B2 A | "G" B2 c d2 D |
"G" G2 G G2 A | "G" B>G e d3 | "G" G>A B "D" A2 A | "G" G3-G2 :|
%%vskip 0
W: Music formula for morris dance : A(AB)3A
r: 24
